<?xml version="1.0" encoding="UTF-8"?>
<map version="1.10" tiledversion="1.12.2" orientation="orthogonal" renderorder="right-down" width="30" height="20" tilewidth="16" tileheight="16" infinite="0" nextlayerid="6" nextobjectid="1">
 <editorsettings>
  <export target="correctedWorld3layers.json" format="json"/>
 </editorsettings>
 <tileset firstgid="1" name="punkcity" tilewidth="16" tileheight="16" tilecount="480" columns="30">
  <image source="../worldTilesetDownload/world1.png" width="480" height="256"/>
  <tile id="153">
   <objectgroup draworder="index" id="2">
    <object id="1" x="0" y="0" width="16" height="16"/>
   </objectgroup>
  </tile>
 </tileset>
 <layer id="5" name="ground" width="30" height="20">
  <data encoding="csv">
0,0,0,0,0,0,0,0,0,0,0,0,0,0,0,0,0,0,0,0,0,0,0,0,0,0,0,0,0,0,
0,0,0,0,0,0,0,0,0,0,0,0,0,0,0,0,0,0,0,0,0,0,0,0,0,0,0,0,0,0,
0,0,0,0,0,0,0,0,0,0,0,0,0,0,0,0,0,0,0,0,0,0,0,0,0,0,0,0,0,0,
0,0,0,0,0,0,0,0,0,0,0,0,0,0,0,0,0,0,0,0,0,0,0,0,0,0,0,0,0,0,
0,0,0,0,0,0,0,0,0,0,0,0,0,0,0,0,0,0,0,0,0,0,0,0,0,0,0,0,0,0,
0,0,0,0,0,0,0,0,0,0,0,0,0,0,0,0,0,0,0,0,0,0,0,0,0,0,0,0,0,0,
0,0,0,0,0,0,0,0,0,0,0,0,0,0,0,0,0,0,0,0,0,0,0,0,0,0,0,0,0,0,
0,0,0,0,0,0,0,0,0,0,0,0,0,0,0,0,0,0,0,0,0,0,0,0,0,0,0,0,0,0,
0,0,0,0,0,0,0,0,0,0,0,0,0,0,0,0,0,0,0,0,0,0,0,0,0,0,0,0,0,0,
0,0,0,0,0,0,0,0,0,0,0,0,0,0,0,0,0,0,0,0,0,0,0,0,0,0,0,0,0,0,
0,0,0,0,0,0,0,0,0,0,0,0,0,0,0,0,0,0,0,0,0,0,0,0,0,0,0,0,0,0,
0,0,0,0,0,0,0,0,0,0,0,0,0,0,0,0,0,0,0,0,0,0,0,0,0,0,0,0,0,0,
0,0,0,0,0,0,0,0,0,0,0,0,0,0,0,0,0,0,0,0,0,0,0,0,0,0,0,0,0,0,
0,0,0,0,0,0,0,0,0,0,0,0,0,0,0,0,0,0,0,0,0,0,0,0,0,0,0,0,0,0,
0,0,0,0,0,0,0,0,0,0,0,0,0,0,0,0,0,0,0,0,0,0,0,0,0,0,0,0,0,0,
0,0,0,0,0,0,0,0,0,0,0,0,0,0,0,0,0,0,0,0,0,0,0,0,0,0,0,0,0,0,
0,0,0,0,0,0,0,0,0,0,0,0,0,0,0,0,0,0,0,0,0,0,0,0,0,0,0,0,0,0,
0,0,0,0,0,0,0,0,0,0,0,0,0,0,0,0,0,0,0,0,0,0,0,0,0,0,0,0,0,0,
153,153,153,153,153,153,153,153,153,153,153,153,153,153,153,153,153,153,153,153,153,153,153,153,153,153,153,153,153,153,
183,183,183,183,183,183,183,183,183,183,183,183,183,183,183,183,183,183,183,183,183,183,183,183,183,183,183,183,183,183
</data>
 </layer>
 <layer id="4" name="buildings" width="30" height="20">
  <data encoding="csv">
0,0,0,0,0,0,0,0,0,0,0,0,0,0,0,0,0,0,0,0,0,0,0,0,0,0,0,0,0,0,
0,0,0,0,0,0,0,0,0,0,0,0,0,0,0,0,0,0,0,0,0,0,0,0,0,0,0,0,0,0,
0,0,0,0,0,0,0,0,0,0,0,0,0,0,0,0,0,0,50,51,51,51,51,52,0,0,0,0,0,0,
0,0,0,0,0,0,0,0,0,0,0,0,0,0,0,0,0,0,80,81,81,81,81,82,0,0,0,0,0,0,
0,0,0,0,0,0,0,0,0,0,0,0,0,0,0,0,0,0,80,81,81,81,81,82,0,0,0,0,0,0,
0,0,32,33,33,33,33,33,33,33,33,34,0,0,0,0,0,0,80,81,81,81,81,82,0,0,0,0,0,0,
0,0,62,63,63,63,63,63,63,63,63,64,0,0,0,0,0,0,80,81,81,81,81,82,0,0,0,0,0,0,
0,0,62,63,63,63,63,63,63,63,63,64,0,0,0,0,0,0,80,81,81,81,81,82,0,0,0,0,0,0,
0,0,62,63,63,63,63,63,63,63,63,64,0,0,0,0,0,0,80,81,81,81,81,82,0,0,0,0,0,0,
0,0,62,63,63,63,63,63,63,63,63,64,0,0,0,0,0,83,80,81,81,81,81,82,84,0,0,0,0,0,
0,0,62,63,63,63,63,63,63,63,63,64,0,0,0,0,0,80,80,81,81,81,81,82,82,0,0,0,0,0,
0,0,62,63,63,63,63,63,63,63,63,64,0,0,0,0,0,80,80,81,81,81,81,82,82,0,0,0,0,0,
0,0,62,63,63,63,63,63,63,63,63,64,0,0,0,0,0,80,80,81,81,81,81,82,82,0,0,0,0,0,
0,0,62,63,63,63,63,63,63,63,63,64,0,0,0,0,0,80,80,81,81,81,81,82,82,0,0,0,0,0,
0,0,92,93,93,93,93,93,93,93,93,94,0,0,0,0,0,113,80,81,81,81,81,82,114,0,0,0,0,0,
0,0,0,62,63,63,63,63,63,63,64,0,0,0,0,0,0,0,80,81,81,81,81,82,0,0,0,0,0,0,
0,0,0,62,63,63,63,63,63,63,64,0,0,0,0,0,0,0,80,81,81,81,81,82,0,0,0,0,0,0,
0,0,0,62,63,63,63,63,63,63,64,0,0,0,0,0,0,0,80,81,81,81,81,82,0,0,0,0,0,0,
0,0,0,0,0,0,0,0,0,0,0,0,0,0,0,0,0,0,0,0,0,0,0,0,0,0,0,0,0,0,
0,0,0,0,0,0,0,0,0,0,0,0,0,0,0,0,0,0,0,0,0,0,0,0,0,0,0,0,0,0
</data>
 </layer>
 <layer id="2" name="decoration" width="30" height="20">
  <data encoding="csv">
0,0,0,0,0,0,0,0,0,0,0,0,0,0,0,0,0,0,0,0,0,0,0,0,0,0,0,0,0,0,
0,0,0,0,0,0,0,0,0,0,0,0,0,0,0,0,0,0,0,0,0,0,0,0,0,0,0,0,0,0,
0,0,0,0,0,0,0,0,0,0,0,0,0,0,0,0,0,0,0,0,0,0,0,0,0,0,0,0,0,0,
0,0,0,0,0,0,0,0,0,0,0,0,0,0,0,0,0,0,0,290,291,291,292,0,0,0,0,0,0,0,
0,0,0,0,0,0,0,0,0,0,0,0,0,0,0,0,0,0,0,320,321,321,322,0,0,0,0,0,0,0,
0,0,0,0,0,0,0,0,0,0,0,0,0,0,0,0,0,0,0,350,351,351,352,0,0,0,0,0,0,0,
0,0,0,0,0,0,0,0,0,0,0,0,0,0,0,0,0,0,0,0,0,0,0,0,0,0,0,0,0,0,
0,0,0,0,0,0,0,0,0,0,0,0,0,0,0,0,0,0,0,290,291,291,292,0,0,0,0,0,0,0,
0,0,0,0,0,0,0,0,0,0,0,0,0,0,0,0,0,0,0,320,321,321,322,0,0,0,0,0,0,0,
0,0,0,0,222,0,0,0,0,222,0,0,221,0,0,0,0,0,0,350,351,351,352,0,0,0,0,0,0,0,
0,0,0,0,217,0,0,0,0,219,0,0,217,0,0,0,0,0,0,0,0,0,0,0,0,0,0,0,0,0,
0,0,0,0,216,0,0,252,248,255,0,0,216,0,0,0,0,0,0,290,291,291,292,0,0,0,0,0,0,0,
0,0,0,0,215,0,0,0,0,218,0,0,217,0,0,0,0,0,0,320,321,321,322,0,0,0,0,0,0,0,
0,0,0,0,250,223,0,0,0,253,0,0,251,0,0,0,0,0,0,350,351,351,352,0,0,0,0,0,0,0,
0,0,0,0,0,0,0,0,0,0,0,0,0,0,0,0,0,0,0,0,0,0,0,0,0,0,0,0,0,0,
0,0,0,0,374,0,0,0,0,374,0,0,0,0,0,0,0,429,0,341,342,342,343,0,459,0,0,0,0,0,
0,275,276,277,0,367,368,0,371,0,0,0,365,366,275,276,277,0,0,0,372,373,0,0,0,275,276,277,0,0,
0,305,306,307,0,397,398,0,401,0,0,0,395,396,305,306,307,0,0,0,402,403,0,0,0,305,306,307,0,0,
0,0,0,0,0,0,0,0,0,0,0,0,0,0,0,0,0,0,0,0,0,0,0,0,0,0,0,0,0,0,
0,0,0,0,0,0,0,0,0,0,0,0,0,0,0,0,0,0,0,0,0,0,0,0,0,0,0,0,0,0
</data>
 </layer>
</map>
